packages/icons/src/play.svg

<svg width="24" height="24" viewBox="0 0 24 24" fill="none" xmlns="http://www.w3.org/2000/svg">
<path d="M9.525 18.025C9.19167 18.2417 8.85417 18.2542 8.5125 18.0625C8.17083 17.8708 8 17.575 8 17.175V6.825C8 6.425 8.17083 6.12917 8.5125 5.9375C8.85417 5.74583 9.19167 5.75833 9.525 5.975L17.675 11.15C17.975 11.35 18.125 11.6333 18.125 12C18.125 12.3667 17.975 12.65 17.675 12.85L9.525 18.025Z" fill="black"/>
</svg>

<svg xmlns="http://www.w3.org/2000/svg" width="24" height="24" fill="none" viewBox="0 0 24 24">
  <path fill="#000" d="M9.525 18.025c-.333.217-.67.23-1.013.038-.341-.192-.512-.488-.512-.888V6.825c0-.4.17-.696.512-.888.342-.191.68-.179 1.013.038l8.15 5.175c.3.2.45.483.45.85s-.15.65-.45.85l-8.15 5.175Z"/>
</svg>
